!!!OTL: 1341. Soldatenschicksal.
!!!ARE: Europa, Mitteleuropa, Deutschland, Schlesien
!!!SCT: E1341
!!!TXL: @@DE
!!!YEM: Copyright 1995, estate of Helmut Schaffrath.
**kern	**text
*ICvox	*
*M4/4	*
*met(c)	*
*k[b-]	*
*F:	*
!LO:TX:a:t=Mäßig langsam.	!
{8c	Ka-
8c	-me-
=1	=1
4f	-rad,
4f	ich
4a	bin
4a	ge-
=2	=2
2g	-ſchoſ-
4f}	-ſen,
{8f	ei-
8f	-ne
=3	=3
4a	Kugel
4a	hat
4cc	mich
4cc	ge-
=4	=4
2b-	-trof-
4a	-fen;
4r}	.
=5	=5
{4.cc	Füh-
8b-	-re
4a	mich
4f	in
=6	=6
4b-	mein
4dd	Quar-
2cc}	-tier!
=7	=7
{4.b-	Son-
8cc	-ſten
4a	wer
4f	ver-
=8	=8
4g	-bindt
4g	mich
4f}	hier?
==	==
!!!AGN: Staende -, Soldaten -, Kriegs - Lied
!!!ONB: ESAC (Essen Associative Code) Database: ERK3
!!!AMT: simple quadruple
!!!AIN: vox
!!!EED: Helmut Schaffrath
!!!EEV: 1.0
!!!GTL: Staendelieder (Berufslieder). 1. Soldaten- und Kriegslieder. Soldatenlieder seit dem 30jaehr. Kriege.
!!!URL-scan: https://rosdok.uni-rostock.de/mcrviewer/recordIdentifier/rosdok_ppn745177999/iview2/phys_0224.iview2?x=-128.77276441889285&y=1151.8244323093677&scale=0.5870222003877487&rotation=0&layout=singlePageLayout
!!!ENC: Anna Maria Matuszewska
!!!EEV: 2024/12/27
*-	*-
